; generated by Slic3r 1.2.9 on 2018-04-01 at 17:20:12

; external perimeters extrusion width = 0.50mm
; perimeters extrusion width = 0.72mm
; infill extrusion width = 0.72mm
; solid infill extrusion width = 0.72mm
; top infill extrusion width = 0.72mm

M107
M104 S185 ; set temperature
G28 ; home all axes
G1 Z5 F5000 ; lift nozzle

M109 S185 ; wait for temperature to be reached
G21 ; set units to millimeters
G90 ; use absolute coordinates
M82 ; use absolute distances for extrusion
G92 E0
G1 Z0.500 F7800.000
G1 E-2.00000 F2400.00000
G92 E0
G1 X89.670 Y91.534 F7800.000
G1 E2.00000 F2400.00000
G1 X91.240 Y90.111 E2.39316 F943.202
G1 X93.470 Y89.145 E2.84408
G1 X94.408 Y88.984 E3.02068
G1 X95.145 Y88.940 E3.15777
G1 X104.640 Y88.851 E4.91993
G1 X105.161 Y88.891 E5.01677 F943.202
G1 X106.182 Y89.080 E5.20941
G1 X107.666 Y89.655 E5.50473
G1 X109.263 Y90.793 E5.86874
G1 X110.130 Y91.770 E6.11119
G1 X110.523 Y92.346 E6.24041
G1 X110.835 Y92.887 E6.35636
G1 X111.652 Y95.963 E6.94704
G1 X111.691 Y97.522 E7.23642
G1 X110.925 Y100.680 E7.83952
G1 X110.631 Y101.215 E7.95287
G1 X110.287 Y101.763 E8.07278
G1 X109.774 Y102.416 E8.22697
G1 X109.398 Y102.814 E8.32844
G1 X108.545 Y103.536 E8.53598
G1 X106.944 Y104.394 E8.87304
G1 X106.245 Y104.617 E9.00918
G1 X105.101 Y104.825 E9.22483
G1 X104.384 Y104.867 E9.35828
G1 X95.399 Y104.954 E11.02566
G1 X94.439 Y104.910 E11.20402
G1 X94.045 Y104.859 E11.27764
G1 X92.943 Y104.594 E11.48807
G1 X90.734 Y103.401 E11.95392
G1 X89.346 Y101.909 E12.33216
G1 X88.858 Y101.111 E12.50564
G1 X88.519 Y100.423 E12.64799
G1 X87.931 Y97.927 E13.12386
G1 X87.937 Y96.179 E13.44830
G1 X88.143 Y94.589 E13.74589
G1 X88.499 Y93.500 E13.95842
G1 X88.844 Y92.771 E14.10800
G1 X89.197 Y92.177 E14.23633
G1 X89.623 Y91.592 E14.37057
G1 E12.37057 F2400.00000
G92 E0
G1 X101.773 Y97.235 F7800.000
G1 E2.00000 F2400.00000
G1 X98.045 Y97.277 E2.69189 F943.202
G1 X96.693 Y97.223 E2.94296
G1 X96.248 Y97.187 E3.02574
G1 X96.235 Y96.706 E3.11495
G1 X97.134 Y96.585 E3.28325
G1 X98.095 Y96.541 E3.46172
G1 X101.424 Y96.507 E4.07956
G1 X101.741 Y97.167 E4.21532
G1 X101.306 Y97.055 F7800.000
M104 S180 ; set temperature
G1 Z0.800 F7800.000
G1 X100.626 Y97.561 F7800.000
G1 X101.022 Y97.009 E4.27078 F600.000
G1 X101.789 Y96.993 E4.33340
G1 X102.533 Y96.896 E4.39464
G1 X103.795 Y96.788 E4.49799 F900.000
G1 X103.989 Y96.719 E4.51480
G1 X104.338 Y96.594 E4.54511 F600.000
G1 X104.563 Y96.697 E4.56528
G1 X104.841 Y96.737 E4.58817 F900.000
G1 X107.505 Y96.713 E4.80569
G1 X107.538 Y97.069 E4.83482
G1 X106.710 Y97.226 E4.90364
G1 X105.391 Y97.402 E5.01227
G1 X105.038 Y97.425 E5.04109
G1 X103.553 Y97.522 E5.16259 F600.000
G1 X101.660 Y97.562 E5.31718
G1 X100.701 Y97.561 E5.39543
G1 X97.353 Y97.542 F7800.000
G1 X95.172 Y97.483 E5.57347 F600.000
G1 X94.588 Y97.401 E5.62160
G1 X92.972 Y97.225 E5.75437 F900.000
G1 X92.989 Y96.855 E5.78453
G1 X94.759 Y96.833 E5.92902
G1 X94.837 Y96.810 E5.93559
G1 X95.284 Y96.681 E5.97364 F600.000
G1 X95.580 Y96.827 E6.00055
G1 X96.719 Y96.888 E6.09367
G1 X97.244 Y96.949 E6.13680
G1 X97.339 Y97.468 E6.17984
G1 X97.782 Y96.865 F7800.000
G1 X98.032 Y96.988 E6.19494 F1023.402
G1 X98.659 Y97.021 E6.22909
G1 X99.719 Y97.019 E6.28667
G1 X100.233 Y96.983 E6.31467
G1 X100.431 Y96.898 E6.32639
G1 X100.606 Y96.654 E6.34271
G1 X100.557 Y96.474 E6.35287
G1 X101.748 Y96.449 E6.41760
G1 X102.566 Y96.342 E6.46243
G1 X103.679 Y96.250 E6.52310
G1 X103.982 Y96.142 E6.54058
G1 X104.189 Y95.977 E6.55497
G1 X104.403 Y95.979 E6.56660
G1 X104.551 Y96.091 E6.57671
G1 X104.705 Y96.167 E6.58601
G1 X105.011 Y96.190 E6.60272
G1 X106.797 Y96.166 E6.74855 F3600.000
G1 X108.572 Y96.172 E6.89338
G1 X109.089 Y96.202 E6.93571
G1 X109.782 Y96.279 E6.99261
G1 X109.933 Y96.335 E7.00574
G1 X110.060 Y97.274 E7.08312
G1 X109.604 Y97.360 E7.12104
G1 X107.651 Y97.602 E7.28168
G1 X106.797 Y97.764 E7.35266
G1 X105.445 Y97.945 E7.46401
G1 X104.823 Y97.985 E7.51488
G1 X103.815 Y98.051 E7.56974 F1023.402
G1 X101.666 Y98.107 E7.74530 F3600.000
G1 X97.986 Y98.104 E8.04570
G1 X95.820 Y98.046 E8.22257
G1 X95.124 Y98.027 E8.26036 F1023.402
G1 X94.711 Y97.965 E8.28308
G1 X92.640 Y97.737 E8.45313 F3600.000
G1 X91.557 Y97.645 E8.54186
G1 X90.594 Y97.528 E8.62111
G1 X90.725 Y96.836 E8.67864
G1 X90.703 Y96.429 E8.71187
G1 X91.983 Y96.323 E8.81672
G1 X94.579 Y96.290 E9.02861
G1 X94.679 Y96.289 E9.03403 F1023.402
G1 X94.952 Y96.210 E9.04948
G1 X95.142 Y96.068 E9.06234
G1 X95.313 Y96.060 E9.07163
G1 X95.398 Y96.078 E9.07637
G1 X95.548 Y96.203 E9.08698
G1 X95.721 Y96.289 E9.09745
G1 X96.765 Y96.345 E9.15427
G1 X97.528 Y96.434 E9.19599
G1 X97.710 Y96.472 E9.20612
G1 X97.769 Y96.791 E9.22373
G1 X97.715 Y97.134 F7800.000
G1 X97.628 Y97.531 F7800.000
G1 X98.653 Y97.563 E9.39944 F682.268
G1 X100.305 Y97.542 E9.68238
G1 E7.68238 F2400.00000
G92 E0
G1 X107.794 Y96.874 F7800.000
G1 E2.00000 F2400.00000
G1 X108.551 Y96.829 E2.12998 F682.268
G1 X109.714 Y96.809 E2.32925
G1 E0.32925 F2400.00000
G92 E0
G1 X92.708 Y97.027 F7800.000
G1 E2.00000 F2400.00000
G1 X90.973 Y96.989 E2.29731 F682.268
G1 Z1.100 F7800.000
G1 E0.29731 F2400.00000
G92 E0
G1 X88.116 Y96.981 F7800.000
G1 E2.00000 F2400.00000
G1 X88.573 Y96.793 E2.04036 F3600.000
G1 X88.643 Y96.735 E2.04772
G1 X88.670 Y96.713 E2.05060 F2086.043
G1 X88.701 Y96.734 E2.05371
G1 X88.797 Y96.801 E2.06325 F3600.000
G1 X89.151 Y96.868 E2.09266
G1 X90.213 Y96.877 E2.17934
G1 X90.695 Y96.881 E2.21868 F2086.043
G1 X92.394 Y96.990 E2.35764
G1 X93.449 Y97.117 E2.44445
G1 X94.915 Y97.090 E2.56415
G1 X95.106 Y96.974 E2.58239
G1 X95.242 Y97.207 E2.60435
G1 X95.978 Y97.244 E2.66454
G1 X96.074 Y97.296 E2.67339
G1 X96.335 Y97.342 E2.69504
G1 X96.950 Y97.351 E2.74531
G1 X98.452 Y97.310 E2.86796
G1 X99.154 Y97.312 E2.92521
G1 X100.470 Y97.243 E3.03282
G1 X102.540 Y97.227 E3.20181
G1 X103.045 Y97.197 E3.24312
G1 X103.456 Y97.136 E3.27697
G1 X103.612 Y97.047 E3.29168
G1 X103.719 Y97.044 E3.30042
G1 X104.328 Y96.919 E3.35119
G1 X104.374 Y96.968 E3.35671
G1 X105.031 Y97.026 E3.41051
G1 X105.492 Y96.958 E3.44855
G1 X106.353 Y96.960 E3.51889
G1 X107.031 Y96.930 E3.57426
G1 X107.853 Y96.833 E3.64182
G1 X109.089 Y96.731 E3.74308
G1 X110.473 Y96.674 E3.85614
G1 X110.641 Y96.667 E3.86983 F3600.000
G1 X111.017 Y96.573 E3.90151
G1 X111.154 Y96.487 E3.91470 F2086.043
G1 X111.282 Y96.555 E3.92659
G1 X111.721 Y96.786 E3.96703 F3600.000
G1 X111.377 Y96.996 E3.99990
G1 X111.061 Y97.190 E4.03014 F2086.043
G1 X110.930 Y97.129 E4.04197
G1 X110.667 Y97.115 E4.06348
G1 X110.548 Y97.109 E4.07318 F3600.000
G1 X110.510 Y97.107 E4.07626 F2086.043
G1 X109.305 Y97.475 E4.17913
G1 X108.495 Y97.612 E4.24622
G1 X107.040 Y97.716 E4.36527
G1 X103.449 Y97.810 E4.65851
G1 X96.791 Y97.863 E5.20205
G1 X94.076 Y97.849 E5.42369
G1 X92.657 Y97.820 E5.53952
G1 X91.209 Y97.729 E5.65795
G1 X90.807 Y97.684 E5.69096
G1 X90.245 Y97.584 E5.73760
G1 X89.815 Y97.482 E5.77366
G1 X89.324 Y97.365 E5.81487 F3600.000
G1 X89.073 Y97.377 E5.83539
G1 X88.792 Y97.430 E5.85872 F2086.043
G1 X88.533 Y97.258 E5.88409
G1 X88.179 Y97.023 E5.91882 F3600.000
G1 E3.91882 F2400.00000
G92 E0
G1 X88.832 Y97.214 F7800.000
G1 X88.954 Y97.110 F7800.000
G1 X90.439 Y97.243 F7800.000
G1 X91.056 Y97.308 F7800.000
G1 X91.624 Y97.347 F7800.000
G1 X91.818 Y97.360 F7800.000
G1 X91.924 Y97.366 F7800.000
G1 X91.936 Y97.164 F7800.000
G1 X95.100 Y96.209 F7800.000
G1 E2.00000 F2400.00000
G1 X95.362 Y96.263 E2.01450 F1043.021
G1 X95.362 Y96.476 E2.02609
G1 X95.492 Y96.553 E2.03432
G1 X95.565 Y96.677 E2.04213
G1 X96.128 Y96.706 E2.07279
G1 X96.255 Y96.774 E2.08059
G1 X96.387 Y96.798 E2.08788
G1 X96.947 Y96.806 E2.11833
G1 X98.446 Y96.765 E2.19979
G1 X99.140 Y96.767 E2.23752
G1 X100.454 Y96.698 E2.30898
G1 X102.522 Y96.682 E2.42137
G1 X102.989 Y96.655 E2.44680
G1 X103.274 Y96.612 E2.46242
G1 X103.414 Y96.532 E2.47121
G1 X103.508 Y96.505 E2.47654
G1 X103.655 Y96.500 E2.48454
G1 X103.955 Y96.439 E2.50118
G1 X104.156 Y96.222 E2.51722
G1 X104.173 Y96.122 E2.52272
G1 X104.424 Y96.100 E2.53639
G1 X104.497 Y96.300 E2.54798
G1 X104.630 Y96.443 E2.55860
G1 X105.015 Y96.477 E2.57958
G1 X105.453 Y96.413 E2.60362
G1 X106.342 Y96.415 E2.65196
G1 X106.987 Y96.387 E2.68702
G1 X107.798 Y96.290 E2.73142
G1 X109.056 Y96.187 E2.79996
G1 X110.397 Y96.132 E2.87291
G1 X110.575 Y96.123 E2.88745 F3600.000
G1 X110.781 Y96.078 E2.89890 F1043.021
G1 X111.100 Y95.876 E2.91942
G1 X111.274 Y95.882 E2.92886
G1 X111.432 Y96.018 E2.94021
G1 X111.620 Y96.117 E2.95177
G1 X111.711 Y96.139 E2.95685
G1 X112.530 Y96.196 E3.02388 F3600.000
G1 X112.448 Y96.454 E3.04602
G1 X112.501 Y97.116 E3.10017
G1 X112.591 Y97.347 E3.12042
G1 X111.736 Y97.438 E3.19059
G1 X111.692 Y97.443 E3.19303 F1043.021
G1 X111.463 Y97.583 E3.20760
G1 X111.299 Y97.732 E3.21967
G1 X111.016 Y97.747 E3.23504
G1 X110.797 Y97.668 E3.24770
G1 X110.628 Y97.659 E3.25693
G1 X110.581 Y97.656 E3.26072 F3600.000
G1 X109.833 Y97.896 E3.32484
G1 X109.422 Y98.008 E3.35961
G1 X108.560 Y98.154 E3.43100
G1 X106.818 Y98.267 E3.57351
G1 X103.458 Y98.355 E3.75610 F1043.021
G1 X96.792 Y98.409 E4.11833
G1 X93.974 Y98.392 E4.27142
G1 X92.635 Y98.364 E4.38078 F3600.000
G1 X91.162 Y98.272 E4.50123
G1 X90.729 Y98.224 E4.53678
G1 X90.134 Y98.118 E4.58612
G1 X89.273 Y97.914 E4.65837
G1 X89.142 Y97.920 E4.66908
G1 X88.813 Y97.984 E4.68728 F1043.021
G1 X88.539 Y97.975 E4.70216
G1 X88.380 Y97.811 E4.71458
G1 X88.184 Y97.681 E4.72738
G1 X88.140 Y97.675 E4.72977
G1 X87.235 Y97.565 E4.80420 F3600.000
G1 X87.297 Y97.330 E4.82406
G1 X87.342 Y96.683 E4.87703
G1 X87.274 Y96.473 E4.89502
G1 X88.147 Y96.379 E4.96669
G1 X88.289 Y96.320 E4.97505 F1043.021
G1 X88.536 Y96.116 E4.99244
G1 X88.606 Y96.099 E4.99631
G1 X88.746 Y96.102 E5.00394
G1 X89.013 Y96.287 E5.02160
G1 X89.162 Y96.316 E5.02986
G1 X89.747 Y96.328 E5.07758 F3600.000
G1 X90.714 Y96.336 E5.13016 F1043.021
G1 X92.444 Y96.447 E5.22430
G1 X93.477 Y96.571 E5.28086
G1 X94.759 Y96.547 E5.35051
G1 X95.025 Y96.386 E5.36741
G1 X95.071 Y96.278 E5.37379
G1 X95.288 Y96.399 F7800.000
G1 X95.017 Y97.471 F7800.000
G1 X93.429 Y97.476 E5.50340 F695.348
G1 X91.245 Y97.324 E5.68215
G1 X90.228 Y97.224 E5.76556
G1 E3.76556 F2400.00000
G92 E0
G1 X103.576 Y97.463 F7800.000
G1 E2.00000 F2400.00000
G1 X103.718 Y97.423 E2.01203 F695.348
G1 X104.200 Y97.372 E2.05158
G1 X105.037 Y97.398 E2.11992
G1 X105.520 Y97.357 E2.15955
G1 X107.060 Y97.321 E2.28529
G1 X108.445 Y97.200 E2.39877
G1 X109.509 Y97.060 E2.48638
M106 S255
G1 Z1.400 F7800.000
G1 X87.299 Y96.922 F7800.000
G1 X88.270 Y96.952 E2.56567 F2811.768
G1 X88.584 Y96.780 E2.59486
G1 X89.086 Y96.957 E2.63834
G1 X89.445 Y97.047 E2.66857
G1 X90.225 Y97.133 E2.73257
G1 X91.059 Y97.115 E2.80073
G1 X91.764 Y97.146 E2.85834
G1 X92.996 Y97.095 E2.95897
G1 X93.513 Y97.093 E3.00115
G1 X94.804 Y97.021 E3.10669
G1 X95.167 Y96.888 E3.13831
G1 X95.289 Y96.783 E3.15149
G1 X95.520 Y96.920 E3.17337
G1 X95.981 Y96.980 E3.21135
G1 X99.837 Y96.892 E3.52624
G1 X103.567 Y96.861 E3.83073
G1 X104.052 Y96.796 E3.87066
G1 X104.224 Y96.680 E3.88765
G1 X104.742 Y96.864 E3.93248
G1 X106.489 Y96.929 E4.07522
G1 X107.712 Y96.935 E4.17505
G1 X108.043 Y96.984 E4.20238
G1 X108.588 Y97.007 E4.24688
G1 X109.017 Y96.992 E4.28192
G1 X109.357 Y96.938 E4.31006
G1 X109.680 Y96.986 E4.33667
G1 X110.095 Y96.978 E4.37061
G1 X110.647 Y96.849 E4.41685
G1 X110.967 Y96.666 E4.44692
G1 X111.223 Y96.584 E4.46889
G1 X111.447 Y96.622 E4.48739
G1 X111.532 Y96.757 E4.50042
G1 X112.410 Y96.692 E4.57228
G1 X112.509 Y96.977 E4.59692
G1 X112.122 Y97.238 E4.63500
G1 X111.919 Y97.424 E4.65751
G1 X111.768 Y97.501 E4.67127
G1 X111.608 Y97.549 E4.68493
G1 X110.643 Y97.674 E4.76440
G1 X109.109 Y97.771 E4.88989
G1 X107.907 Y97.814 E4.98801
G1 X101.580 Y97.904 E5.50456
G1 X100.761 Y97.931 E5.57148
G1 X100.255 Y97.923 E5.61276
G1 X99.219 Y97.951 E5.69739
G1 X96.687 Y97.969 E5.90411
G1 X96.281 Y97.955 E5.93727
G1 X92.578 Y97.965 E6.23954
G1 X90.458 Y97.936 E6.41259
G1 X88.831 Y97.872 E6.54556
G1 X88.238 Y97.820 E6.59417
G1 X87.875 Y97.758 E6.62415
G1 X87.730 Y97.711 E6.63664
G1 X87.656 Y97.596 E6.64781
G1 X87.420 Y97.480 E6.66931
G1 X87.304 Y97.387 E6.68141
G1 X87.300 Y96.997 E6.71332
G1 X86.656 Y96.356 F7800.000
G1 X88.138 Y96.403 E6.79388 F1405.884
G1 X88.386 Y96.267 E6.80920
G1 X88.532 Y96.103 E6.82116
G1 X88.750 Y96.103 E6.83297
G1 X88.866 Y96.302 E6.84547
G1 X89.243 Y96.434 E6.86719
G1 X89.542 Y96.509 E6.88393
G1 X90.249 Y96.587 E6.92258
G1 X91.066 Y96.569 E6.96697
G1 X91.765 Y96.601 E7.00502
G1 X92.984 Y96.550 E7.07130
G1 X93.497 Y96.548 E7.09917
G1 X94.693 Y96.482 E7.16423
G1 X94.886 Y96.411 E7.17541
G1 X95.028 Y96.288 E7.18561
G1 X95.157 Y96.065 E7.19964
G1 X95.359 Y96.065 E7.21061
G1 X95.542 Y96.299 E7.22674
G1 X95.702 Y96.394 E7.23681
G1 X96.010 Y96.434 E7.25372
G1 X99.829 Y96.347 E7.46125
G1 X103.529 Y96.316 E7.66228
G1 X103.853 Y96.273 E7.68003
G1 X104.018 Y96.161 E7.69086
G1 X104.178 Y95.980 E7.70398
G1 X104.363 Y95.972 E7.71408
G1 X104.633 Y96.246 E7.73502
G1 X104.846 Y96.322 E7.74727
G1 X106.501 Y96.384 E7.83726
G1 X107.754 Y96.390 E7.90535
G1 X108.095 Y96.441 E7.92408
G1 X108.590 Y96.462 E7.95098
G1 X108.954 Y96.449 E7.97078
G1 X109.188 Y96.402 E7.98374
G1 X109.380 Y96.390 E7.99421
G1 X109.715 Y96.440 E8.01261
G1 X110.027 Y96.434 E8.02958
G1 X110.446 Y96.336 E8.05292
G1 X110.747 Y96.164 E8.07176
G1 X110.935 Y96.104 E8.08248
G1 X111.078 Y95.890 E8.09650
G1 X111.263 Y95.874 E8.10659
G1 X111.463 Y96.072 E8.12188
G1 X111.777 Y96.124 E8.13916
G1 X111.818 Y96.189 E8.14334
G1 X113.075 Y96.096 E8.21184
G1 X113.015 Y96.402 E8.22878
M106 S255
G1 X113.021 Y97.058 E8.28229 F3600.000
M106 S255
G1 X113.081 Y97.386 E8.30040 F1405.884
G1 X112.621 Y97.559 E8.32707
G1 X112.460 Y97.667 E8.33763
G1 X112.221 Y97.881 E8.35506
M106 S255
G1 X111.972 Y98.008 E8.37787 F3600.000
G1 X111.649 Y98.095 E8.40517
M106 S255
G1 X110.779 Y98.207 E8.45287 F1405.884
M106 S255
G1 X110.386 Y98.237 E8.48499 F3600.000
M106 S255
G1 X109.135 Y98.315 E8.55309 F1405.884
G1 X107.921 Y98.359 E8.61911
G1 X99.229 Y98.496 E9.09146
G1 X96.679 Y98.514 E9.22996
G1 X96.272 Y98.500 E9.25210
G1 X92.575 Y98.510 E9.45298
G1 X90.444 Y98.481 E9.56878
G1 X89.349 Y98.438 E9.62831
M106 S255
G1 X89.140 Y98.429 E9.64541 F3600.000
M106 S255
G1 X88.233 Y98.366 E9.69481 F1405.884
M106 S255
G1 X87.746 Y98.289 E9.73505 F3600.000
G1 X87.492 Y98.207 E9.75682
G1 X87.402 Y98.162 E9.76504
G1 X87.322 Y98.085 E9.77410
M106 S255
G1 X87.278 Y98.017 E9.77848 F1405.884
G1 X87.127 Y97.943 E9.78766
G1 X86.881 Y97.748 E9.80471
G1 X86.668 Y97.649 E9.81749
G1 X86.731 Y97.491 E9.82675
G1 X86.750 Y97.361 E9.83390
M106 S255
G1 X86.752 Y96.676 E9.88978 F3600.000
G1 X86.714 Y96.549 E9.90063
M106 S255
G1 X86.678 Y96.428 E9.90747 F1405.884
G1 X87.107 Y96.573 F7800.000
G1 X87.797 Y97.282 F7800.000
G1 X87.901 Y97.308 E9.91618 F937.256
G1 X87.996 Y97.358 E9.92502
G1 X88.346 Y97.391 E9.95365
G1 X88.629 Y97.340 E9.97719
G1 X89.364 Y97.466 E10.03801
G1 X90.203 Y97.529 E10.10669
G1 X91.767 Y97.550 E10.23443
G1 X93.528 Y97.528 E10.37820
G1 X94.878 Y97.488 E10.48846
G1 X95.298 Y97.417 E10.52319
G1 X95.943 Y97.468 E10.57599
G1 X96.694 Y97.466 E10.63730
G1 X103.592 Y97.368 E11.20049
G1 X104.304 Y97.304 E11.25886
G1 X104.673 Y97.361 E11.28934
G1 X107.678 Y97.376 E11.53466
G1 X108.009 Y97.397 E11.56167
G1 X108.589 Y97.398 E11.60906
G1 X109.057 Y97.382 E11.64728
G1 X109.340 Y97.348 E11.67057
G1 X109.659 Y97.361 E11.69664
G1 X110.145 Y97.341 E11.73630
G1 X110.788 Y97.241 E11.78941
G1 X111.177 Y97.117 E11.82276
G1 X111.264 Y97.158 E11.83065
G1 X111.367 Y97.178 E11.83917
G1 X111.623 Y97.139 E11.86036
G1 X111.793 Y97.092 E11.87473
G1 Z1.700 F7800.000
G1 X96.019 Y97.360 F7800.000
G1 X99.818 Y97.280 E12.18495 F857.096
G1 X103.730 Y97.248 E12.50427
G1 X104.041 Y97.226 E12.52975
G1 X104.265 Y97.168 E12.54859
G1 X104.393 Y97.211 E12.55965
G1 X104.792 Y97.260 E12.59247
G1 X104.778 Y97.622 E12.62199
G1 X102.189 Y97.733 E12.83349
G1 X101.509 Y97.809 E12.88933
G1 X100.704 Y98.071 E12.95843
G1 X100.547 Y98.049 E12.97142
G1 X100.102 Y98.090 E13.00787
G1 X98.734 Y98.094 E13.11954
G1 X98.016 Y97.895 E13.18040
G1 X97.388 Y97.787 E13.23242
G1 X96.017 Y97.742 E13.34440
G1 X96.018 Y97.435 E13.36948
