; generated by Slic3r 1.2.9 on 2018-04-01 at 18:14:34

; external perimeters extrusion width = 0.50mm
; perimeters extrusion width = 0.72mm
; infill extrusion width = 0.72mm
; solid infill extrusion width = 0.72mm
; top infill extrusion width = 0.72mm

M107
M104 S185 ; set temperature
G28 ; home all axes
G1 Z5 F5000 ; lift nozzle

M109 S185 ; wait for temperature to be reached
G21 ; set units to millimeters
G90 ; use absolute coordinates
M82 ; use absolute distances for extrusion
G92 E0
G1 Z0.350 F7800.000
G1 E-2.00000 F2400.00000
G92 E0
G1 X137.306 Y82.700 F7800.000
G1 E2.00000 F2400.00000
G1 X137.788 Y81.941 E2.02780 F1800.000
G1 X138.385 Y81.123 E2.05915
G1 X139.256 Y80.093 E2.10089
G1 X139.912 Y79.416 E2.13005
G1 X140.302 Y79.049 E2.14662
G1 X141.015 Y78.433 E2.17578
G1 X141.761 Y77.857 E2.20495
G1 X142.281 Y77.501 E2.22442
G1 X142.736 Y77.218 E2.24102
G1 X143.548 Y76.759 E2.26987
G1 X175.743 Y60.344 E3.38804
G1 X178.032 Y59.623 E3.46230
G1 X180.431 Y59.688 E3.53655
G1 X182.677 Y60.534 E3.61081 F1800.000
G1 X185.004 Y62.688 E3.70894
G1 X205.336 Y92.189 E4.81750
G1 X205.828 Y92.985 E4.84647
G1 X206.266 Y93.796 E4.87498
G1 X206.460 Y94.197 E4.88879
G1 X206.666 Y94.657 E4.90437
G1 X207.009 Y95.528 E4.93332
G1 X207.417 Y96.831 E4.97558
G1 X207.558 Y97.379 E4.99308
G1 X207.748 Y98.268 E5.02122
G1 X207.900 Y99.199 E5.05039
G1 X208.031 Y100.477 E5.09016
G1 X208.060 Y101.042 E5.10767
G1 X208.072 Y101.968 E5.13631
G1 X208.032 Y102.740 E5.16023
G1 X207.927 Y103.651 E5.18860
G1 X207.843 Y104.180 E5.20517
G1 X207.662 Y105.078 E5.23354
G1 X204.414 Y118.602 E5.66388
G1 X204.258 Y119.123 E5.68069
G1 X203.934 Y120.045 E5.71092
G1 X203.556 Y120.946 E5.74117
G1 X203.131 Y121.808 E5.77090
G1 X202.915 Y122.202 E5.78482
G1 X202.409 Y123.038 E5.81505
G1 X202.107 Y123.490 E5.83188
G1 X201.525 Y124.276 E5.86212
G1 X200.908 Y125.012 E5.89184
G1 X200.605 Y125.344 E5.90575
G1 X199.915 Y126.037 E5.93603
G1 X199.501 Y126.415 E5.95337
G1 X198.735 Y127.052 E5.98419
G1 X198.388 Y127.316 E5.99769
G1 X197.932 Y127.642 E6.01503
G1 X197.094 Y128.182 E6.04586
G1 X178.806 Y138.485 E6.69533
G1 X178.414 Y138.685 E6.70895
G1 X177.548 Y139.082 E6.73843
G1 X177.020 Y139.297 E6.75606
G1 X176.083 Y139.629 E6.78681
G1 X174.717 Y140.006 E6.83066
G1 X173.744 Y140.202 E6.86140
G1 X173.180 Y140.289 E6.87903
G1 X171.769 Y140.422 E6.92288
G1 X171.200 Y140.443 E6.94051
G1 X170.206 Y140.432 E6.97126
G1 X168.794 Y140.317 E7.01510
G1 X167.812 Y140.167 E7.04585
G1 X167.253 Y140.055 E7.06349
G1 X154.318 Y136.768 E7.47643
G1 X153.196 Y136.437 E7.51262
G1 X152.304 Y136.110 E7.54202
G1 X151.431 Y135.733 E7.57143
G1 X150.582 Y135.306 E7.60083
G1 X149.436 Y134.635 E7.64194
G1 X148.615 Y134.077 E7.67264
G1 X147.832 Y133.468 E7.70334
G1 X147.088 Y132.810 E7.73407
G1 X146.389 Y132.107 E7.76476
G1 X146.079 Y131.764 E7.77905
G1 X145.447 Y130.998 E7.80977
G1 X144.866 Y130.194 E7.84047
G1 X144.409 Y129.478 E7.86677
G1 X134.255 Y112.250 E8.48552
G1 X133.872 Y111.559 E8.50994
G1 X133.332 Y110.472 E8.54751
G1 X133.124 Y109.989 E8.56379
G1 X132.783 Y109.082 E8.59377
G1 X132.498 Y108.157 E8.62372
G1 X132.386 Y107.728 E8.63742
G1 X132.184 Y106.781 E8.66739
G1 X132.041 Y105.823 E8.69736
G1 X131.987 Y105.300 E8.71364
G1 X131.934 Y104.332 E8.74362
G1 X131.941 Y103.364 E8.77358
G1 X131.972 Y102.822 E8.79038
G1 X132.084 Y101.744 E8.82392
G1 X132.250 Y100.673 E8.85745
G1 X132.390 Y99.961 E8.87988
G1 X135.585 Y86.665 E9.30301
G1 X135.837 Y85.863 E9.32901
G1 X136.132 Y85.090 E9.35460
G1 X136.653 Y83.914 E9.39442
G1 X136.868 Y83.485 E9.40926
G1 X137.268 Y82.765 E9.43476
G1 X137.847 Y83.011 F7800.000
G1 X138.311 Y82.284 E9.46144 F1800.000
G1 X138.884 Y81.499 E9.49151
G1 X139.710 Y80.522 E9.53109
G1 X140.341 Y79.871 E9.55916
G1 X140.731 Y79.503 E9.57573
G1 X141.417 Y78.910 E9.60380
G1 X142.137 Y78.357 E9.63188
G1 X143.066 Y77.748 E9.66627
G1 X143.849 Y77.306 E9.69407
G1 X176.026 Y60.900 E10.81163
G1 X178.219 Y60.228 E10.88259
G1 X180.510 Y60.344 E10.95355
G1 X182.623 Y61.234 E11.02451 F1800.000
G1 X184.490 Y63.043 E11.10494
G1 X204.820 Y92.541 E12.21343
G1 X205.292 Y93.306 E12.24124
G1 X205.890 Y94.453 E12.28125
G1 X206.096 Y94.912 E12.29683
G1 X206.424 Y95.749 E12.32463
G1 X206.812 Y96.986 E12.36475
G1 X206.953 Y97.534 E12.38225
G1 X207.136 Y98.393 E12.40943
G1 X207.283 Y99.293 E12.43765
G1 X207.407 Y100.510 E12.47550
G1 X207.436 Y101.075 E12.49300
G1 X207.447 Y101.969 E12.52068
G1 X207.411 Y102.675 E12.54254
G1 X207.310 Y103.553 E12.56989
G1 X207.226 Y104.082 E12.58646
G1 X207.051 Y104.948 E12.61381
G1 X203.816 Y118.423 E13.04257
G1 X203.535 Y119.319 E13.07165
G1 X203.200 Y120.198 E13.10073
G1 X202.983 Y120.696 E13.11755
G1 X202.567 Y121.538 E13.14662
G1 X201.891 Y122.690 E13.18795
G1 X201.588 Y123.142 E13.20478
G1 X201.028 Y123.897 E13.23386
G1 X200.157 Y124.909 E13.27518
G1 X199.493 Y125.576 E13.30429
G1 X199.079 Y125.954 E13.32163
G1 X198.024 Y126.808 E13.36362
G1 X197.568 Y127.133 E13.38095
G1 X196.762 Y127.653 E13.41062
G1 X178.506 Y137.937 E14.05897
G1 X177.312 Y138.503 E14.09984
G1 X176.785 Y138.718 E14.11747
G1 X175.882 Y139.037 E14.14709
G1 X174.587 Y139.395 E14.18868
G1 X173.649 Y139.584 E14.21828
G1 X173.085 Y139.671 E14.23592
G1 X171.747 Y139.798 E14.27751
G1 X171.178 Y139.818 E14.29514
G1 X170.221 Y139.808 E14.32475
G1 X168.881 Y139.699 E14.36634
G1 X167.935 Y139.554 E14.39596
G1 X167.044 Y139.366 E14.42413
G1 X154.472 Y136.163 E14.82555
G1 X153.403 Y135.847 E14.86003
G1 X152.901 Y135.671 E14.87649
G1 X152.054 Y135.329 E14.90476
G1 X151.227 Y134.939 E14.93304
G1 X150.215 Y134.378 E14.96885
G1 X149.409 Y133.870 E14.99833
G1 X148.637 Y133.312 E15.02781
G1 X147.902 Y132.706 E15.05729
G1 X147.509 Y132.348 E15.07372
G1 X146.838 Y131.673 E15.10318
G1 X146.211 Y130.955 E15.13266
G1 X145.631 Y130.199 E15.16216
G1 X144.947 Y129.160 E15.20063
G1 X134.793 Y111.932 E15.81939
G1 X134.420 Y111.259 E15.84322
G1 X133.906 Y110.224 E15.87895
G1 X133.698 Y109.741 E15.89523
G1 X133.370 Y108.870 E15.92403
G1 X132.995 Y107.590 E15.96531
G1 X132.801 Y106.680 E15.99410
G1 X132.662 Y105.760 E16.02289
G1 X132.609 Y105.236 E16.03917
G1 X132.559 Y104.307 E16.06797
G1 X132.565 Y103.377 E16.09674
G1 X132.594 Y102.881 E16.11210
G1 X132.703 Y101.834 E16.14468
G1 X132.863 Y100.794 E16.17725
G1 X133.003 Y100.082 E16.19968
G1 X136.184 Y86.843 E16.62099
G1 X136.424 Y86.077 E16.64582
G1 X136.706 Y85.338 E16.67027
G1 X137.212 Y84.194 E16.70901
G1 X137.427 Y83.765 E16.72385
G1 X137.810 Y83.076 E16.74823
G1 E14.74823 F2400.00000
G92 E0
G1 X166.965 Y125.816 F7800.000
G1 E2.00000 F2400.00000
G1 X167.649 Y126.784 E2.03669 F1800.000
G1 X167.894 Y127.053 E2.04796
G1 X168.166 Y127.305 E2.05942
G1 X168.460 Y127.531 E2.07088
G1 X168.771 Y127.731 E2.08234
G1 X169.099 Y127.903 E2.09380
G1 X169.441 Y128.046 E2.10527
G1 X169.794 Y128.159 E2.11673
G1 X170.156 Y128.240 E2.12819
G1 X170.523 Y128.290 E2.13965
G1 X170.893 Y128.307 E2.15111
G1 X171.263 Y128.292 E2.16258
G1 X171.630 Y128.245 E2.17404
G1 X171.992 Y128.167 E2.18550
G1 X172.346 Y128.057 E2.19696
G1 X172.691 Y127.916 E2.20848
G1 X173.033 Y127.744 E2.22034
G1 X173.361 Y127.545 E2.23219
G1 X173.672 Y127.322 E2.24404
G1 X173.964 Y127.075 E2.25589
G1 X174.236 Y126.805 E2.26774
G1 X174.487 Y126.515 E2.27959
G1 X174.713 Y126.207 E2.29143
G1 X174.915 Y125.881 E2.30328
G1 X175.090 Y125.541 E2.31513
G1 X175.238 Y125.187 E2.32698
G1 X175.358 Y124.824 E2.33883
G1 X175.448 Y124.452 E2.35068
G1 X175.507 Y124.092 E2.36195
G1 X175.495 Y123.634 E2.37614
G1 X175.452 Y123.157 E2.39096
G1 X175.376 Y122.684 E2.40577
G1 X175.264 Y122.203 E2.42105
G1 X175.129 Y121.758 E2.43543
G1 X174.959 Y121.310 E2.45025
G1 X174.760 Y120.875 E2.46508
G1 X174.530 Y120.451 E2.47999
G1 X172.662 Y117.386 E2.59107
G1 X169.960 Y113.137 E2.74684
G1 X169.693 Y113.210 E2.75539
G1 X169.624 Y114.386 E2.79184
G1 X169.540 Y115.126 E2.81488
G1 X169.426 Y115.861 E2.83788
G1 X169.180 Y117.170 E2.87910
G1 X169.042 Y117.758 E2.89781
G1 X168.877 Y118.323 E2.91602
G1 X168.672 Y118.912 E2.93531
G1 X168.441 Y119.473 E2.95408
G1 X168.181 Y120.020 E2.97283
G1 X167.831 Y120.666 E2.99554
G1 X167.260 Y120.566 E3.01349
G1 X166.955 Y118.292 E3.08449
G1 X166.866 Y115.175 E3.18098
G1 X166.593 Y115.104 E3.18970
G1 X165.505 Y116.947 E3.25591
G1 X164.838 Y118.163 E3.29882
G1 X164.216 Y119.364 E3.34066
G1 X163.560 Y120.706 E3.38689
G1 X162.924 Y120.536 E3.40726
G1 X163.025 Y119.045 E3.45350
G1 X163.115 Y118.181 E3.48037
G1 X163.238 Y117.321 E3.50726
G1 X163.392 Y116.466 E3.53414
G1 X163.579 Y115.618 E3.56103
G1 X163.800 Y114.770 E3.58813
G1 X164.062 Y114.013 E3.61292
G1 X164.335 Y113.314 E3.63613
G1 X164.644 Y112.606 E3.66003
G1 X164.920 Y112.037 E3.67960
G1 X164.723 Y111.848 E3.68804
G1 X162.065 Y113.277 E3.78142
G1 X157.895 Y115.407 E3.92630
G1 X157.391 Y115.707 E3.94445
G1 X156.901 Y116.033 E3.96266
G1 X156.430 Y116.386 E3.98087
G1 X155.977 Y116.762 E3.99909
G1 X155.546 Y117.162 E4.01730
G1 X155.136 Y117.585 E4.03551
G1 X154.763 Y118.011 E4.05302
G1 X154.591 Y118.300 E4.06345
G1 X154.436 Y118.619 E4.07441
G1 X154.308 Y118.949 E4.08537
G1 X154.209 Y119.289 E4.09633
G1 X154.138 Y119.636 E4.10729
G1 X154.096 Y119.988 E4.11825
G1 X154.083 Y120.342 E4.12921
G1 X154.100 Y120.696 E4.14017
G1 X154.147 Y121.049 E4.15120
G1 X154.302 Y121.805 E4.17507
G1 X154.405 Y122.177 E4.18702
G1 X154.536 Y122.538 E4.19890
G1 X154.695 Y122.888 E4.21079
G1 X154.882 Y123.223 E4.22267
G1 X155.095 Y123.543 E4.23454
G1 X155.340 Y123.854 E4.24680
G1 X155.593 Y124.127 E4.25832
G1 X155.875 Y124.388 E4.27021
G1 X156.178 Y124.625 E4.28209
G1 X156.497 Y124.837 E4.29398
G1 X156.819 Y125.015 E4.30534
G1 X157.185 Y125.141 E4.31733
G1 X157.577 Y125.244 E4.32987
G1 X157.975 Y125.318 E4.34241
G1 X158.378 Y125.362 E4.35495
G1 X158.783 Y125.375 E4.36749
G1 X159.188 Y125.359 E4.38002
G1 X159.591 Y125.313 E4.39256
G1 X159.989 Y125.236 E4.40510
G1 X160.380 Y125.131 E4.41764
G1 X160.763 Y124.997 E4.43019
G1 X161.502 Y124.674 E4.45515
G1 X161.801 Y125.639 E4.48640
G1 X162.349 Y127.091 E4.53441
G1 X161.145 Y127.636 E4.57530
G1 X160.210 Y127.962 E4.60595
G1 X159.717 Y128.082 E4.62163
G1 X159.249 Y128.162 E4.63634
G1 X158.761 Y128.208 E4.65149
G1 X158.272 Y128.218 E4.66663
G1 X157.783 Y128.192 E4.68178
G1 X157.297 Y128.130 E4.69693
G1 X156.817 Y128.032 E4.71208
G1 X156.333 Y127.895 E4.72765
G1 X155.886 Y127.733 E4.74236
G1 X155.440 Y127.533 E4.75751
G1 X155.009 Y127.300 E4.77265
G1 X154.596 Y127.037 E4.78780
G1 X154.204 Y126.743 E4.80295
G1 X153.835 Y126.422 E4.81809
G1 X153.487 Y126.072 E4.83337
G1 X152.863 Y125.306 E4.86393
G1 X152.574 Y124.874 E4.88000
G1 X152.318 Y124.427 E4.89594
G1 X152.094 Y123.963 E4.91190
G1 X151.900 Y123.470 E4.92829
G1 X151.748 Y122.993 E4.94378
G1 X151.626 Y122.492 E4.95972
G1 X151.540 Y121.984 E4.97567
G1 X151.490 Y121.471 E4.99161
G1 X151.476 Y120.956 E5.00756
G1 X151.499 Y120.441 E5.02350
G1 X151.557 Y119.929 E5.03945
G1 X151.652 Y119.423 E5.05539
G1 X151.782 Y118.924 E5.07134
G1 X151.957 Y118.405 E5.08828
G1 X152.363 Y117.783 E5.11126
G1 X152.775 Y117.210 E5.13311
G1 X153.212 Y116.655 E5.15496
G1 X153.674 Y116.121 E5.17681
G1 X154.160 Y115.609 E5.19866
G1 X154.668 Y115.118 E5.22051
G1 X155.198 Y114.651 E5.24236
G1 X155.748 Y114.209 E5.26421
G1 X156.317 Y113.791 E5.28606
G1 X156.905 Y113.400 E5.30791
G1 X157.510 Y113.035 E5.32976
G1 X158.131 Y112.698 E5.35161
G1 X159.502 Y112.030 E5.39881
G1 X160.848 Y111.338 E5.44565
G1 X162.179 Y110.617 E5.49250
G1 X163.495 Y109.867 E5.53934
G1 X164.793 Y109.089 E5.58618
G1 X166.075 Y108.282 E5.63303
G1 X167.394 Y107.411 E5.68195
G1 X168.912 Y106.361 E5.73907
G1 X171.896 Y111.423 E5.92090
G1 X174.363 Y115.416 E6.06613
G1 X174.809 Y116.075 E6.09076
G1 X175.240 Y116.761 E6.11580
G1 X175.647 Y117.460 E6.14084
G1 X176.031 Y118.173 E6.16588
G1 X176.390 Y118.898 E6.19092
G1 X176.717 Y119.618 E6.21538
G1 X176.974 Y120.089 E6.23200
G1 X177.212 Y120.596 E6.24934
G1 X177.421 Y121.116 E6.26667
G1 X177.597 Y121.648 E6.28400
G1 X177.743 Y122.189 E6.30134
G1 X177.855 Y122.738 E6.31867
G1 X177.936 Y123.293 E6.33602
G1 X177.983 Y123.867 E6.35384
G1 X177.996 Y124.411 E6.37068
G1 X177.977 Y124.971 E6.38801
G1 X177.923 Y125.549 E6.40599
G1 X177.778 Y126.066 E6.42261
G1 X177.603 Y126.555 E6.43866
G1 X177.392 Y127.029 E6.45471
G1 X177.148 Y127.486 E6.47076
G1 X176.878 Y127.912 E6.48635
G1 X176.562 Y128.341 E6.50284
G1 X176.224 Y128.735 E6.51890
G1 X175.858 Y129.102 E6.53495
G1 X175.477 Y129.432 E6.55055
G1 X175.051 Y129.752 E6.56704
G1 X174.613 Y130.032 E6.58310
G1 X174.157 Y130.278 E6.59915
G1 X173.684 Y130.491 E6.61520
G1 X173.196 Y130.669 E6.63125
G1 X172.697 Y130.810 E6.64730
G1 X171.723 Y131.010 E6.67807
G1 X171.227 Y131.075 E6.69357
G1 X170.727 Y131.104 E6.70906
G1 X170.226 Y131.097 E6.72455
G1 X169.727 Y131.054 E6.74004
G1 X169.233 Y130.976 E6.75553
G1 X168.745 Y130.863 E6.77102
G1 X168.267 Y130.715 E6.78651
G1 X167.801 Y130.533 E6.80200
G1 X167.348 Y130.318 E6.81749
G1 X166.913 Y130.071 E6.83298
G1 X166.496 Y129.794 E6.84847
G1 X166.100 Y129.488 E6.86396
G1 X165.727 Y129.154 E6.87945
G1 X165.379 Y128.794 E6.89494
G1 X165.066 Y128.422 E6.90997
G1 X164.573 Y127.742 E6.93596
G1 X165.791 Y126.836 E6.98295
G1 X166.908 Y125.865 E7.02875
G1 X167.364 Y125.514 F7800.000
G1 E5.02875 F2400.00000
G92 E0
G1 X160.227 Y110.955 F7800.000
G1 E2.00000 F2400.00000
G1 X160.051 Y110.637 E2.01125 F1800.000
G1 X166.764 Y106.639 E2.25299
G1 X166.958 Y106.950 E2.26432
G1 X165.736 Y107.757 E2.30965
G1 X164.466 Y108.556 E2.35607
G1 X163.179 Y109.327 E2.40249
G1 X161.876 Y110.071 E2.44892
G1 X160.294 Y110.921 E2.50449
G1 X169.511 Y104.484 F7800.000
G1 X169.045 Y103.483 E2.53868 F1800.000
G1 X168.326 Y101.813 E2.59493
G1 X169.637 Y101.310 E2.63840
G1 X170.352 Y101.085 E2.66158
G1 X170.948 Y101.843 E2.69143
G1 X171.412 Y102.389 E2.71360
G1 X172.214 Y103.265 E2.75034
G1 X171.140 Y103.780 E2.78719
G1 X169.580 Y104.455 E2.83979
G1 X169.056 Y104.691 F7800.000
G1 E0.83979 F2400.00000
G92 E0
G1 X170.791 Y116.297 F7800.000
G1 E2.00000 F2400.00000
G1 X173.121 Y120.423 E2.14661 F1800.000
G1 X173.321 Y120.745 E2.15835
G1 X173.524 Y121.136 E2.17197
G1 X173.694 Y121.543 E2.18563
G1 X173.833 Y121.972 E2.19957
G1 X173.933 Y122.388 E2.21283
G1 X174.002 Y122.823 E2.22645
G1 X174.036 Y123.275 E2.24048
G1 X174.011 Y124.039 E2.26412
G1 X173.931 Y124.444 E2.27689
G1 X173.804 Y124.824 E2.28930
G1 X173.639 Y125.171 E2.30117
G1 X173.427 Y125.504 E2.31339
G1 X173.169 Y125.811 E2.32580
G1 X172.889 Y126.073 E2.33767
G1 X172.570 Y126.303 E2.34983
G1 X172.225 Y126.492 E2.36200
G1 X171.860 Y126.637 E2.37417
G1 X171.479 Y126.735 E2.38634
G1 X171.089 Y126.784 E2.39850
G1 X170.618 Y126.785 E2.41306
G1 X170.131 Y126.644 E2.42875
G1 X169.746 Y126.494 E2.44152
G1 X169.387 Y126.314 E2.45396
G1 X169.026 Y126.092 E2.46707
G1 X168.696 Y125.842 E2.47988
G1 X168.391 Y125.564 E2.49264
G1 X168.120 Y125.268 E2.50507
G1 X167.869 Y124.940 E2.51783
G1 X167.357 Y124.123 E2.54768
G1 X168.080 Y122.897 E2.59174
G1 X168.479 Y122.166 E2.61749
G1 X168.850 Y121.428 E2.64306
G1 X169.196 Y120.677 E2.66863
G1 X169.517 Y119.916 E2.69419
G1 X169.820 Y119.120 E2.72057
G1 X170.767 Y116.368 E2.81061
G1 X170.930 Y117.814 F7800.000
G1 X172.583 Y120.742 E2.91464 F1800.000
G1 X172.778 Y121.054 E2.92603
G1 X172.957 Y121.401 E2.93810
G1 X173.108 Y121.761 E2.95017
G1 X173.231 Y122.142 E2.96256
G1 X173.320 Y122.510 E2.97429
G1 X173.380 Y122.895 E2.98635
G1 X173.410 Y123.289 E2.99857
G1 X173.388 Y123.968 E3.01960
G1 X173.326 Y124.284 E3.02956
G1 X173.224 Y124.590 E3.03955
G1 X173.092 Y124.867 E3.04903
G1 X172.922 Y125.133 E3.05880
G1 X172.715 Y125.380 E3.06878
G1 X172.491 Y125.590 E3.07827
G1 X172.235 Y125.774 E3.08801
G1 X171.959 Y125.926 E3.09776
G1 X171.666 Y126.041 E3.10750
G1 X171.361 Y126.120 E3.11725
G1 X171.049 Y126.159 E3.12699
G1 X170.706 Y126.160 E3.13760
G1 X170.332 Y126.052 E3.14965
G1 X170.000 Y125.922 E3.16066
G1 X169.691 Y125.768 E3.17135
G1 X169.380 Y125.575 E3.18268
G1 X169.095 Y125.361 E3.19371
G1 X168.832 Y125.121 E3.20471
G1 X168.599 Y124.867 E3.21539
G1 X168.383 Y124.584 E3.22640
G1 X168.088 Y124.113 E3.24359
G1 X168.624 Y123.205 E3.27621
G1 X169.032 Y122.456 E3.30261
