;FLAVOR:Marlin
;TIME:596
;Filament used: 0.224257m
;Layer height: 0.1
;Generated with Cura_SteamEngine 3.2.1
;M190 S20
M104 S180
M109 S180
M82 ;absolute extrusion mode
G21 ;metric values
G90 ;absolute positioning
M82 ;set extruder to absolute mode
M107 ;start with the fan off
G28 X0 Y0 ;move X/Y to min endstops
G28 Z0 ;move Z to min endstops
G1 Z15.0 F9000 ;move the platform down 15mm
G92 E0 ;zero the extruded length
G1 F200 E10 ;extrude 10mm of feed stock
G92 E0 ;zero the extruded length again
G1 F9000
;Put printing message on LCD screen
M117 GOGOGO!
;LAYER_COUNT:101
;LAYER:0
M107
G0 F3600 X91.973 Y91.825 Z0.1
;TYPE:SKIRT
G1 F1800 X92.428 Y91.445 E0.00986
G1 X92.931 Y91.131 E0.01972
G1 X93.471 Y90.886 E0.02958
G1 X94.04 Y90.717 E0.03945
G1 X94.625 Y90.626 E0.0493
G1 X95.009 Y90.609 E0.05569
G1 X104.992 Y90.61 E0.22171
G1 X105.584 Y90.65 E0.23158
G1 X106.165 Y90.769 E0.24144
G1 X106.724 Y90.965 E0.25129
G1 X107.253 Y91.235 E0.26117
G1 X107.74 Y91.573 E0.27102
G1 X108.177 Y91.974 E0.28089
G1 X108.556 Y92.43 E0.29075
G1 X108.871 Y92.932 E0.3006
G1 X109.115 Y93.473 E0.31047
G1 X109.284 Y94.041 E0.32033
G1 X109.375 Y94.627 E0.33019
G1 X109.392 Y95.01 E0.33657
G1 X109.392 Y104.991 E0.50255
G1 X109.352 Y105.583 E0.51242
G1 X109.233 Y106.163 E0.52226
G1 X109.037 Y106.723 E0.53213
G1 X108.767 Y107.251 E0.54199
G1 X108.429 Y107.738 E0.55185
G1 X108.028 Y108.175 E0.56172
G1 X107.573 Y108.555 E0.57157
G1 X107.07 Y108.869 E0.58143
G1 X106.53 Y109.114 E0.5913
G1 X105.961 Y109.283 E0.60117
G1 X105.376 Y109.374 E0.61101
G1 X104.992 Y109.391 E0.6174
G1 X95.009 Y109.391 E0.78342
G1 X94.417 Y109.351 E0.79329
G1 X93.837 Y109.232 E0.80314
G1 X93.277 Y109.036 E0.813
G1 X92.749 Y108.766 E0.82287
G1 X92.262 Y108.428 E0.83272
G1 X91.825 Y108.027 E0.84259
G1 X91.445 Y107.572 E0.85245
G1 X91.131 Y107.069 E0.86231
G1 X90.886 Y106.529 E0.87217
G1 X90.717 Y105.96 E0.88204
G1 X90.626 Y105.375 E0.89188
G1 X90.609 Y104.991 E0.89828
G1 X90.609 Y95.009 E1.06428
G1 X90.649 Y94.417 E1.07415
G1 X90.768 Y93.837 E1.08399
G1 X90.964 Y93.277 E1.09386
G1 X91.234 Y92.749 E1.10372
G1 X91.572 Y92.262 E1.11358
G1 X91.973 Y91.825 E1.12344
G0 F3600 X92.365 Y92.007
G1 F1800 X92.815 Y91.665 E1.13284
G1 X93.308 Y91.389 E1.14224
G1 X93.836 Y91.185 E1.15165
G1 X94.386 Y91.058 E1.16104
G1 X95.009 Y91.009 E1.17143
G1 X104.992 Y91.01 E1.33745
G1 X105.556 Y91.05 E1.34685
G1 X106.109 Y91.169 E1.35626
G1 X106.639 Y91.365 E1.36566
G1 X107.137 Y91.634 E1.37507
G1 X107.591 Y91.97 E1.38446
G1 X107.994 Y92.366 E1.39386
G1 X108.337 Y92.816 E1.40327
G1 X108.613 Y93.31 E1.41268
G1 X108.816 Y93.837 E1.42207
G1 X108.943 Y94.388 E1.43147
G1 X108.992 Y95.01 E1.44185
G1 X108.992 Y104.991 E1.60783
G1 X108.952 Y105.555 E1.61724
G1 X108.833 Y106.108 E1.62664
G1 X108.637 Y106.638 E1.63604
G1 X108.369 Y107.135 E1.64543
G1 X108.033 Y107.59 E1.65484
G1 X107.636 Y107.993 E1.66424
G1 X107.186 Y108.335 E1.67364
G1 X106.693 Y108.611 E1.68304
G1 X106.165 Y108.815 E1.69245
G1 X105.615 Y108.942 E1.70184
G1 X104.992 Y108.991 E1.71223
G1 X95.009 Y108.991 E1.87825
G1 X94.445 Y108.951 E1.88765
G1 X93.892 Y108.832 E1.89706
G1 X93.362 Y108.636 E1.90646
G1 X92.865 Y108.368 E1.91585
G1 X92.41 Y108.032 E1.92525
G1 X92.007 Y107.635 E1.93466
G1 X91.665 Y107.185 E1.94406
G1 X91.389 Y106.692 E1.95346
G1 X91.185 Y106.164 E1.96287
G1 X91.058 Y105.614 E1.97226
G1 X91.009 Y104.991 E1.98265
G1 X91.009 Y95.009 E2.14865
G1 X91.049 Y94.445 E2.15806
G1 X91.168 Y93.892 E2.16746
G1 X91.364 Y93.362 E2.17686
G1 X91.632 Y92.865 E2.18625
G1 X91.968 Y92.41 E2.19566
G1 X92.365 Y92.007 E2.20506
G0 F3600 X92.364 Y92.567
G1 F1800 X92.756 Y92.201 E2.21398
G1 X93.198 Y91.898 E2.22289
G1 X93.681 Y91.663 E2.23183
G1 X94.192 Y91.503 E2.24073
G1 X94.722 Y91.42 E2.24965
G1 X95.009 Y91.409 E2.25443
G1 X104.992 Y91.41 E2.42045
G1 X105.527 Y91.45 E2.42937
G1 X106.05 Y91.569 E2.43829
G1 X106.549 Y91.764 E2.4472
G1 X107.014 Y92.032 E2.45612
G1 X107.434 Y92.365 E2.46504
G1 X107.8 Y92.757 E2.47396
G1 X108.104 Y93.2 E2.48289
G1 X108.338 Y93.682 E2.4918
G1 X108.498 Y94.194 E2.50072
G1 X108.581 Y94.724 E2.50964
G1 X108.592 Y95.01 E2.5144
G1 X108.592 Y104.991 E2.68039
G1 X108.552 Y105.526 E2.68931
G1 X108.433 Y106.049 E2.69823
G1 X108.238 Y106.548 E2.70714
G1 X107.97 Y107.013 E2.71606
G1 X107.637 Y107.433 E2.72498
G1 X107.245 Y107.799 E2.7339
G1 X106.803 Y108.102 E2.74281
G1 X106.32 Y108.337 E2.75174
G1 X105.809 Y108.497 E2.76065
G1 X105.279 Y108.58 E2.76957
G1 X104.992 Y108.591 E2.77434
G1 X95.009 Y108.591 E2.94036
G1 X94.474 Y108.551 E2.94928
G1 X93.951 Y108.432 E2.9582
G1 X93.452 Y108.237 E2.96711
G1 X92.987 Y107.969 E2.97604
G1 X92.567 Y107.636 E2.98495
G1 X92.201 Y107.244 E2.99387
G1 X91.898 Y106.802 E3.00278
G1 X91.663 Y106.319 E3.01172
G1 X91.503 Y105.808 E3.02062
G1 X91.42 Y105.278 E3.02954
G1 X91.409 Y104.991 E3.03432
G1 X91.409 Y95.009 E3.20032
G1 X91.449 Y94.474 E3.20924
G1 X91.568 Y93.951 E3.21816
G1 X91.763 Y93.452 E3.22707
G1 X92.031 Y92.987 E3.236
G1 X92.364 Y92.567 E3.24491
G0 F3600 X92.758 Y92.734
G1 F1800 X93.145 Y92.408 E3.25332
G1 X93.578 Y92.147 E3.26173
G1 X94.046 Y91.957 E3.27013
G1 X94.539 Y91.844 E3.27854
G1 X95.009 Y91.809 E3.28638
G1 X104.992 Y91.81 E3.4524
G1 X105.496 Y91.85 E3.46081
G1 X105.988 Y91.969 E3.46922
G1 X106.454 Y92.164 E3.47763
G1 X106.884 Y92.429 E3.48603
G1 X107.267 Y92.76 E3.49444
G1 X107.593 Y93.146 E3.50285
G1 X107.854 Y93.579 E3.51125
G1 X108.044 Y94.048 E3.51967
G1 X108.157 Y94.54 E3.52806
G1 X108.192 Y95.01 E3.5359
G1 X108.192 Y104.991 E3.70189
G1 X108.152 Y105.495 E3.71029
G1 X108.033 Y105.986 E3.7187
G1 X107.839 Y106.453 E3.72711
G1 X107.573 Y106.883 E3.73551
G1 X107.243 Y107.266 E3.74392
G1 X106.856 Y107.592 E3.75234
G1 X106.423 Y107.853 E3.76074
G1 X105.955 Y108.043 E3.76914
G1 X105.462 Y108.156 E3.77756
G1 X104.992 Y108.191 E3.78539
G1 X95.009 Y108.191 E3.95141
G1 X94.505 Y108.151 E3.95982
G1 X94.014 Y108.032 E3.96822
G1 X93.547 Y107.838 E3.97663
G1 X93.117 Y107.572 E3.98504
G1 X92.734 Y107.242 E3.99345
G1 X92.408 Y106.855 E4.00186
G1 X92.147 Y106.422 E4.01027
G1 X91.957 Y105.954 E4.01867
G1 X91.844 Y105.461 E4.02708
G1 X91.809 Y104.991 E4.03492
G1 X91.809 Y95.009 E4.20092
G1 X91.849 Y94.505 E4.20933
G1 X91.968 Y94.014 E4.21773
G1 X92.162 Y93.547 E4.22614
G1 X92.428 Y93.117 E4.23455
G1 X92.758 Y92.734 E4.24296
G1 F1500 E-2.25704
G0 F3600 X95.614 Y94.335
G0 X95.614 Y95.614
G0 X104.331 Y104.33
G0 X104.401 Y104.4
;TYPE:WALL-INNER
G1 F1500 E4.24296
G1 F1800 X95.6 Y104.4 E4.38932
G1 X95.6 Y95.6 E4.53566
G1 X104.401 Y95.6 E4.68202
G1 X104.401 Y104.4 E4.82837
G0 F3600 X104.801 Y104.8
;TYPE:WALL-OUTER
G1 F1800 X95.2 Y104.8 E4.98803
G1 X95.2 Y95.2 E5.14768
G1 X104.801 Y95.2 E5.30735
G1 X104.801 Y104.8 E5.46699
G0 F3600 X104.601 Y104.8
G0 X104.331 Y104.33
G0 X104.011 Y104.01
;TYPE:SKIN
G1 F1800 X95.99 Y104.01 E5.60038
G1 X95.99 Y95.99 E5.73376
G1 X104.011 Y95.99 E5.86715
G1 X104.011 Y104.01 E6.00052
G0 F3600 X103.83 Y96.476
G1 F1800 X103.523 Y96.17 E6.00773
G0 F3600 X102.958 Y96.17
G1 F1800 X103.83 Y97.042 E6.02824
G1 X103.9 Y97.112
G0 F3600 X103.83 Y97.608
G1 F1800 X102.392 Y96.17 E6.06206
G1 X102.322 Y96.1
G0 F3600 X101.826 Y96.17
G1 F1800 X103.83 Y98.173 E6.10918
G1 X103.9 Y98.243
G0 F3600 X103.83 Y98.739
G1 F1800 X101.261 Y96.17 E6.16959
G1 X101.191 Y96.1
G0 F3600 X100.695 Y96.17
G1 F1800 X103.83 Y99.305 E6.24333
G1 X103.9 Y99.375
G0 F3600 X103.83 Y99.871
G1 F1800 X100.129 Y96.17 E6.33037
G1 X100.059 Y96.1
G0 F3600 X99.564 Y96.17
G1 F1800 X103.83 Y100.436 E6.4307
G1 X103.9 Y100.506
G0 F3600 X103.83 Y101.002
G1 F1800 X98.998 Y96.17 E6.54434
G1 X98.928 Y96.1
G0 F3600 X98.432 Y96.17
G1 F1800 X103.83 Y101.568 E6.67129
G1 X103.9 Y101.638
G0 F3600 X103.83 Y102.133
G1 F1800 X97.867 Y96.17 E6.81153
G1 X97.797 Y96.1
G0 F3600 X97.301 Y96.17
G1 F1800 X103.83 Y102.699 E6.96508
G1 X103.9 Y102.769
G0 F3600 X103.83 Y103.265
G1 F1800 X96.735 Y96.17 E7.13195
G1 X96.665 Y96.1
G0 F3600 X96.169 Y96.169
G1 F1800 X103.83 Y103.83 E7.31212
G1 X103.9 Y103.9
G0 F3600 X103.263 Y103.829
G1 F1800 X96.169 Y96.735 E7.47896
G1 X96.099 Y96.665
G0 F3600 X96.169 Y97.3
G1 F1800 X102.698 Y103.829 E7.63251
G1 X102.768 Y103.899
G0 F3600 X102.132 Y103.829
G1 F1800 X96.169 Y97.866 E7.77275
G1 X96.099 Y97.796
G0 F3600 X96.169 Y98.432
G1 F1800 X101.566 Y103.829 E7.89968
G1 X101.636 Y103.899
G0 F3600 X101.001 Y103.829
G1 F1800 X96.169 Y98.997 E8.01332
G1 X96.099 Y98.927
G0 F3600 X96.169 Y99.563
G1 F1800 X100.435 Y103.829 E8.11365
G1 X100.505 Y103.899
G0 F3600 X99.869 Y103.829
G1 F1800 X96.169 Y100.129 E8.20067
G1 X96.099 Y100.059
G0 F3600 X96.169 Y100.694
G1 F1800 X99.303 Y103.829 E8.27439
G1 X99.373 Y103.899
G0 F3600 X98.738 Y103.829
G1 F1800 X96.169 Y101.26 E8.33481
G1 X96.099 Y101.19
G0 F3600 X96.169 Y101.826
G1 F1800 X98.172 Y103.829 E8.38192
G1 X98.242 Y103.899
G0 F3600 X97.606 Y103.829
G1 F1800 X96.169 Y102.391 E8.41573
G1 X96.099 Y102.321
G0 F3600 X96.169 Y102.957
G1 F1800 X97.041 Y103.829 E8.43623
G1 X97.111 Y103.899
G0 F3600 X96.475 Y103.829
G1 F1800 X96.169 Y103.523 E8.44343
G0 F3600 X104.331 Y104.33
G0 X104.401 Y104.4
;TIME_ELAPSED:20.771391
;LAYER:1
;M140 S80
M106 S255
G0 F5400 X104.401 Y104.4 Z0.2
;TYPE:WALL-INNER
G1 F2700 X95.6 Y104.4 E8.58979
G1 X95.6 Y95.6 E8.73614
G1 X104.401 Y95.6 E8.8825
G1 X104.401 Y104.4 E9.02884
G0 F5400 X104.801 Y104.8
;TYPE:WALL-OUTER
G1 F1800 X95.2 Y104.8 E9.18851
G1 X95.2 Y95.2 E9.34816
G1 X104.801 Y95.2 E9.50782
G1 X104.801 Y104.8 E9.66747
G0 F5400 X104.601 Y104.8
G0 X104.331 Y104.33
G0 X104.011 Y104.01
;TYPE:SKIN
G1 F1800 X95.99 Y104.01 E9.80086
G1 X95.99 Y95.99 E9.93423
G1 X104.011 Y95.99 E10.06762
G1 X104.011 Y104.01 E10.201
G0 F5400 X103.83 Y103.21
G1 F1800 X103.21 Y103.83 E10.21558
G1 X103.14 Y103.9
G0 F5400 X102.645 Y103.83
G1 F1800 X103.83 Y102.645 E10.24345
G1 X103.9 Y102.575
G0 F5400 X103.83 Y102.079
G1 F1800 X102.079 Y103.83 E10.28463
G1 X102.009 Y103.9
G0 F5400 X101.513 Y103.83
G1 F1800 X103.83 Y101.513 E10.33912
G1 X103.9 Y101.443
G0 F5400 X103.83 Y100.947
G1 F1800 X100.947 Y103.83 E10.40692
G1 X100.877 Y103.9
G0 F5400 X100.382 Y103.83
G1 F1800 X103.83 Y100.382 E10.48802
G1 X103.9 Y100.312
G0 F5400 X103.83 Y99.816
G1 F1800 X99.816 Y103.83 E10.58242
G1 X99.746 Y103.9
G0 F5400 X99.25 Y103.83
G1 F1800 X103.83 Y99.25 E10.69013
G1 X103.9 Y99.18
G0 F5400 X103.83 Y98.685
G1 F1800 X98.685 Y103.83 E10.81114
G1 X98.615 Y103.9
G0 F5400 X98.119 Y103.83
G1 F1800 X103.83 Y98.119 E10.94545
G1 X103.9 Y98.049
G0 F5400 X103.83 Y97.553
G1 F1800 X97.553 Y103.83 E11.09308
G1 X97.483 Y103.9
G0 F5400 X96.988 Y103.83
G1 F1800 X103.83 Y96.988 E11.25399
G1 X103.9 Y96.918
G0 F5400 X103.83 Y96.422
G1 F1800 X96.422 Y103.83 E11.42821
G1 X96.352 Y103.9
G0 F5400 X96.17 Y103.516
G1 F1800 X103.517 Y96.169 E11.601
G1 X103.587 Y96.099
G0 F5400 X102.951 Y96.169
G1 F1800 X96.17 Y102.951 E11.76049
G1 X96.1 Y103.021
G0 F5400 X96.17 Y102.385
G1 F1800 X102.386 Y96.169 E11.90668
G1 X102.456 Y96.099
G0 F5400 X101.82 Y96.169
G1 F1800 X96.17 Y101.819 E12.03956
G1 X96.1 Y101.889
G0 F5400 X96.17 Y101.254
G1 F1800 X101.254 Y96.169 E12.15914
G1 X101.324 Y96.099
G0 F5400 X100.689 Y96.169
G1 F1800 X96.17 Y100.688 E12.26542
G1 X96.1 Y100.758
G0 F5400 X96.17 Y100.122
G1 F1800 X100.123 Y96.169 E12.35839
G1 X100.193 Y96.099
G0 F5400 X99.557 Y96.169
G1 F1800 X96.17 Y99.557 E12.43806
G1 X96.1 Y99.627
G0 F5400 X96.17 Y98.991
G1 F1800 X98.992 Y96.169 E12.50443
G1 X99.062 Y96.099
G0 F5400 X98.426 Y96.169
G1 F1800 X96.17 Y98.425 E12.55749
G1 X96.1 Y98.495
G0 F5400 X96.17 Y97.86
G1 F1800 X97.86 Y96.169 E12.59725
G1 X97.93 Y96.099
G0 F5400 X97.295 Y96.169
G1 F1800 X96.17 Y97.294 E12.6237
G1 X96.1 Y97.364
G0 F5400 X96.17 Y96.728
G1 F1800 X96.729 Y96.169 E12.63685
G0 F5400 X104.331 Y104.33
G0 X104.401 Y104.4
;TIME_ELAPSED:29.695756
;LAYER:2
G0 F7200 X104.401 Y104.4 Z0.3
;TYPE:WALL-INNER
G1 F3600 X95.6 Y104.4 E12.78321
G1 X95.6 Y95.6 E12.92956
G1 X104.401 Y95.6 E13.07592
G1 X104.401 Y104.4 E13.22226
G0 F7200 X104.801 Y104.8
;TYPE:WALL-OUTER
G1 F1800 X95.2 Y104.8 E13.38193
G1 X95.2 Y95.2 E13.54158
G1 X104.801 Y95.2 E13.70124
G1 X104.801 Y104.8 E13.86089
G0 F7200 X104.601 Y104.8
G0 X104.331 Y104.33
G0 X104.011 Y104.01
;TYPE:SKIN
G1 F1800 X95.99 Y104.01 E13.99428
G1 X95.99 Y95.99 E14.12765
G1 X104.011 Y95.99 E14.26104
G1 X104.011 Y104.01 E14.39442
G0 F7200 X103.83 Y96.476
G1 F1800 X103.523 Y96.17 E14.40162
G0 F7200 X102.958 Y96.17
G1 F1800 X103.83 Y97.042 E14.42213
G1 X103.9 Y97.112
G0 F7200 X103.83 Y97.608
G1 F1800 X102.392 Y96.17 E14.45595
G1 X102.322 Y96.1
G0 F7200 X101.826 Y96.17
G1 F1800 X103.83 Y98.173 E14.50307
G1 X103.9 Y98.243
G0 F7200 X103.83 Y98.739
G1 F1800 X101.261 Y96.17 E14.56349
G1 X101.191 Y96.1
G0 F7200 X100.695 Y96.17
G1 F1800 X103.83 Y99.305 E14.63722
G1 X103.9 Y99.375
G0 F7200 X103.83 Y99.871
G1 F1800 X100.129 Y96.17 E14.72426
G1 X100.059 Y96.1
G0 F7200 X99.564 Y96.17
G1 F1800 X103.83 Y100.436 E14.82459
G1 X103.9 Y100.506
G0 F7200 X103.83 Y101.002
G1 F1800 X98.998 Y96.17 E14.93823
G1 X98.928 Y96.1
G0 F7200 X98.432 Y96.17
G1 F1800 X103.83 Y101.568 E15.06519
G1 X103.9 Y101.638
G0 F7200 X103.83 Y102.133
G1 F1800 X97.867 Y96.17 E15.20543
G1 X97.797 Y96.1
G0 F7200 X97.301 Y96.17
G1 F1800 X103.83 Y102.699 E15.35898
G1 X103.9 Y102.769
G0 F7200 X103.83 Y103.265
G1 F1800 X96.735 Y96.17 E15.52584
G1 X96.665 Y96.1
G0 F7200 X96.169 Y96.169
G1 F1800 X103.83 Y103.83 E15.70602
G1 X103.9 Y103.9
G0 F7200 X103.263 Y103.829
G1 F1800 X96.169 Y96.735 E15.87286
G1 X96.099 Y96.665
G0 F7200 X96.169 Y97.3
G1 F1800 X102.698 Y103.829 E16.02641
G1 X102.768 Y103.899
G0 F7200 X102.132 Y103.829
G1 F1800 X96.169 Y97.866 E16.16665
G1 X96.099 Y97.796
G0 F7200 X96.169 Y98.432
G1 F1800 X101.566 Y103.829 E16.29358
G1 X101.636 Y103.899
G0 F7200 X101.001 Y103.829
G1 F1800 X96.169 Y98.997 E16.40722
G1 X96.099 Y98.927
G0 F7200 X96.169 Y99.563
G1 F1800 X100.435 Y103.829 E16.50755
G1 X100.505 Y103.899
G0 F7200 X99.869 Y103.829
G1 F1800 X96.169 Y100.129 E16.59457
G1 X96.099 Y100.059
G0 F7200 X96.169 Y100.694
G1 F1800 X99.303 Y103.829 E16.66829
G1 X99.373 Y103.899
G0 F7200 X98.738 Y103.829
G1 F1800 X96.169 Y101.26 E16.72871
G1 X96.099 Y101.19
G0 F7200 X96.169 Y101.826
G1 F1800 X98.172 Y103.829 E16.77581
G1 X98.242 Y103.899
G0 F7200 X97.606 Y103.829
G1 F1800 X96.169 Y102.391 E16.80962
G1 X96.099 Y102.321
G0 F7200 X96.169 Y102.957
G1 F1800 X97.041 Y103.829 E16.83013
G1 X97.111 Y103.899
G0 F7200 X96.475 Y103.829
G1 F1800 X96.169 Y103.523 E16.83733
G0 F7200 X104.331 Y104.33
G0 X104.401 Y104.4
;TIME_ELAPSED:38.511923
;LAYER:3
G0 X104.401 Y104.4 Z0.4
;TYPE:WALL-INNER
G1 F3600 X95.6 Y104.4 E16.98369
G1 X95.6 Y95.6 E17.13003
G1 X104.401 Y95.6 E17.27639
G1 X104.401 Y104.4 E17.42274
G0 F7200 X104.801 Y104.8
;TYPE:WALL-OUTER
G1 F1800 X95.2 Y104.8 E17.5824
G1 X95.2 Y95.2 E17.74205
G1 X104.801 Y95.2 E17.90172
G1 X104.801 Y104.8 E18.06137
G0 F7200 X104.601 Y104.8
G0 X104.331 Y104.33
G0 X104.011 Y104.01
;TYPE:SKIN
G1 F1800 X95.99 Y104.01 E18.19476
G1 X95.99 Y95.99 E18.32813
G1 X104.011 Y95.99 E18.46152
G1 X104.011 Y104.01 E18.59489
G0 F7200 X103.83 Y103.21
G1 F1800 X103.21 Y103.83 E18.60947
G1 X103.14 Y103.9
G0 F7200 X102.645 Y103.83
G1 F1800 X103.83 Y102.645 E18.63734
G1 X103.9 Y102.575
G0 F7200 X103.83 Y102.079
G1 F1800 X102.079 Y103.83 E18.67852
G1 X102.009 Y103.9
G0 F7200 X101.513 Y103.83
G1 F1800 X103.83 Y101.513 E18.73302
G1 X103.9 Y101.443
G0 F7200 X103.83 Y100.947
G1 F1800 X100.947 Y103.83 E18.80082
G1 X100.877 Y103.9
G0 F7200 X100.382 Y103.83
G1 F1800 X103.83 Y100.382 E18.88191
G1 X103.9 Y100.312
G0 F7200 X103.83 Y99.816
G1 F1800 X99.816 Y103.83 E18.97631
G1 X99.746 Y103.9
G0 F7200 X99.25 Y103.83
G1 F1800 X103.83 Y99.25 E19.08403
G1 X103.9 Y99.18
G0 F7200 X103.83 Y98.685
G1 F1800 X98.685 Y103.83 E19.20503
G1 X98.615 Y103.9
G0 F7200 X98.119 Y103.83
G1 F1800 X103.83 Y98.119 E19.33935
G1 X103.9 Y98.049
G0 F7200 X103.83 Y97.553
G1 F1800 X97.553 Y103.83 E19.48697
G1 X97.483 Y103.9
G0 F7200 X96.988 Y103.83
G1 F1800 X103.83 Y96.988 E19.64788
G1 X103.9 Y96.918
G0 F7200 X103.83 Y96.422
G1 F1800 X96.422 Y103.83 E19.82211
G1 X96.352 Y103.9
G0 F7200 X96.17 Y103.516
G1 F1800 X103.517 Y96.169 E19.9949
G1 X103.587 Y96.099
G0 F7200 X102.951 Y96.169
